src/assets/img/talisman-wallet-logo.svg

<svg width="78" height="78" viewBox="0 0 78 78" fill="none" xmlns="http://www.w3.org/2000/svg">
<circle cx="39" cy="39" r="39" fill="#D5FF5C"/>
<path fill-rule="evenodd" clip-rule="evenodd" d="M58.1162 42.6631C58.7243 43.9874 60.5149 44.4551 61.5453 43.4247L63.435 41.535C65.3876 39.5824 68.5535 39.5824 70.5061 41.535C72.4587 43.4876 72.4587 46.6535 70.5061 48.6061L55.234 63.8781C51.5653 68.2331 46.0714 71 39.9314 71C33.5284 71 27.8282 67.9911 24.1676 63.3102L9.46452 48.607C7.51191 46.6544 7.51191 43.4886 9.46452 41.536C11.4171 39.5834 14.583 39.5834 16.5356 41.536L18.3966 43.397C19.4045 44.4049 21.1543 43.9515 21.7496 42.6564C21.8672 42.4005 21.9312 42.1259 21.9312 41.8443L21.9311 18.9999C21.9311 16.2385 24.1697 13.9999 26.9311 13.9999C29.6926 13.9999 31.9311 16.2385 31.9311 18.9999V30.5564C31.9311 31.5508 32.9498 32.2258 33.898 31.9262C34.4981 31.7365 34.9316 31.1902 34.9316 30.5608V12C34.9316 9.2386 37.1702 7.00003 39.9316 7.00003C42.693 7.00003 44.9316 9.2386 44.9316 12V30.5612C44.9316 31.1904 45.365 31.7366 45.9649 31.9262C46.9128 32.2258 47.9312 31.551 47.9312 30.5569V18.9999C47.9312 16.2385 50.1698 13.9999 52.9312 13.9999C55.6926 13.9999 57.9312 16.2385 57.9312 18.9999V41.835C57.9312 42.1222 57.9964 42.4021 58.1162 42.6631V42.6631Z" fill="#FD4848"/>
<path d="M55.9319 52.9999C55.9319 52.9999 48.7685 62.9999 39.9319 62.9999C31.0954 62.9999 23.9319 52.9999 23.9319 52.9999C23.9319 52.9999 31.0954 42.9999 39.9319 42.9999C48.7685 42.9999 55.9319 52.9999 55.9319 52.9999Z" fill="#D5FF5C"/>
<path d="M47.4315 53.0001C47.4315 57.142 44.0739 60.4997 39.9319 60.4997C35.79 60.4997 32.4323 57.142 32.4323 53.0001C32.4323 48.8582 35.79 45.5005 39.9319 45.5005C44.0739 45.5005 47.4315 48.8582 47.4315 53.0001Z" stroke="#FD4848" stroke-width="1.00078"/>
<path d="M44.4313 53.0003C44.4313 55.4854 42.4167 57.5 39.9317 57.5C37.4466 57.5 35.4321 55.4854 35.4321 53.0003C35.4321 50.5153 37.4466 48.5007 39.9317 48.5007C42.4167 48.5007 44.4313 50.5153 44.4313 53.0003Z" stroke="#FD4848" stroke-width="1.00078"/>
<path d="M50.4313 53.0001C50.4314 58.7988 45.7305 63.4997 39.9317 63.4997C34.133 63.4997 29.4321 58.7988 29.4321 53.0001C29.4321 47.2013 34.133 42.5005 39.9317 42.5005C45.7305 42.5005 50.4313 47.2013 50.4313 53.0001Z" stroke="#FD4848" stroke-width="1.00078"/>
<path d="M53.4313 53C53.4313 60.4556 47.3873 66.4996 39.9317 66.4996C32.476 66.4996 26.4321 60.4557 26.4321 53C26.4321 45.5444 32.476 39.5004 39.9317 39.5004C47.3873 39.5004 53.4313 45.5444 53.4313 53Z" stroke="#FD4848" stroke-width="1.00078"/>
<path d="M39.9321 54.9999C41.0367 54.9999 41.9321 54.1044 41.9321 52.9999C41.9321 51.8953 41.0367 50.9999 39.9321 50.9999C38.8276 50.9999 37.9321 51.8953 37.9321 52.9999C37.9321 54.1044 38.8276 54.9999 39.9321 54.9999Z" fill="#FD4848"/>
<path d="M24.6516 53.122C24.6174 53.0781 24.5859 53.0374 24.5571 52.9999C24.5859 52.9625 24.6174 52.9218 24.6516 52.8779C24.8601 52.6103 25.1692 52.2262 25.5679 51.7645C26.366 50.8404 27.5204 49.6089 28.9451 48.3787C31.8102 45.9049 35.6948 43.5003 39.9318 43.5003C44.1689 43.5003 48.0534 45.9049 50.9185 48.3787C52.3433 49.6089 53.4977 50.8404 54.2958 51.7645C54.6945 52.2262 55.0035 52.6103 55.2121 52.8779C55.2463 52.9217 55.2778 52.9625 55.3066 52.9999C55.2778 53.0374 55.2463 53.0781 55.2121 53.122C55.0035 53.3896 54.6945 53.7737 54.2958 54.2354C53.4977 55.1595 52.3433 56.391 50.9185 57.6212C48.0534 60.095 44.1689 62.4995 39.9318 62.4995C35.6948 62.4995 31.8102 60.095 28.9451 57.6212C27.5204 56.391 26.366 55.1595 25.5679 54.2354C25.1692 53.7737 24.8601 53.3896 24.6516 53.122V53.122Z" stroke="#D5FF5C" stroke-width="1.00078"/>
</svg>

<svg width="78" height="78" fill="none" xmlns="http://www.w3.org/2000/svg"><circle cx="39" cy="39" r="39" fill="#D5FF5C"/><path fill-rule="evenodd" clip-rule="evenodd" d="M58.116 42.663c.608 1.324 2.399 1.792 3.43.762l1.889-1.89a5 5 0 0 1 7.071 7.071L55.234 63.878C51.565 68.233 46.071 71 39.931 71c-6.403 0-12.103-3.009-15.763-7.69L9.465 48.607a5 5 0 1 1 7.07-7.071l1.862 1.861c1.008 1.008 2.757.555 3.353-.74a1.94 1.94 0 0 0 .181-.813V19a5 5 0 0 1 10 0v11.556c0 .995 1.019 1.67 1.967 1.37.6-.19 1.034-.736 1.034-1.365V12a5 5 0 0 1 10 0v18.561c0 .63.433 1.176 1.033 1.365.948.3 1.966-.375 1.966-1.37V19a5 5 0 0 1 10 0v22.835c0 .287.065.567.185.828Z" fill="#FD4848"/><path d="M55.932 53s-7.163 10-16 10-16-10-16-10 7.163-10 16-10 16 10 16 10Z" fill="#D5FF5C"/><path d="M47.431 53a7.5 7.5 0 1 1-14.999 0 7.5 7.5 0 0 1 15 0Z" stroke="#FD4848" stroke-width="1.001"/><path d="M44.431 53a4.5 4.5 0 1 1-9 0 4.5 4.5 0 0 1 9 0Z" stroke="#FD4848" stroke-width="1.001"/><path d="M50.431 53c0 5.799-4.7 10.5-10.5 10.5-5.798 0-10.499-4.701-10.499-10.5s4.701-10.5 10.5-10.5c5.798 0 10.5 4.701 10.5 10.5Z" stroke="#FD4848" stroke-width="1.001"/><path d="M53.431 53c0 7.456-6.044 13.5-13.5 13.5-7.455 0-13.499-6.044-13.499-13.5s6.044-13.5 13.5-13.5c7.455 0 13.5 6.044 13.5 13.5Z" stroke="#FD4848" stroke-width="1.001"/><path d="M39.932 55a2 2 0 1 0 0-4 2 2 0 0 0 0 4Z" fill="#FD4848"/><path d="M24.652 53.122a22.458 22.458 0 0 1-.095-.122 27.45 27.45 0 0 1 1.01-1.236 33.198 33.198 0 0 1 3.378-3.385c2.865-2.474 6.75-4.879 10.987-4.879s8.121 2.405 10.986 4.879a33.19 33.19 0 0 1 4.294 4.499l.095.122-.095.122a33.19 33.19 0 0 1-4.294 4.5c-2.865 2.473-6.75 4.877-10.986 4.877-4.237 0-8.122-2.404-10.987-4.878a33.198 33.198 0 0 1-4.293-4.499Z" stroke="#D5FF5C" stroke-width="1.001"/></svg>
